material/.icons/material/alpha-w.svg

<svg xmlns="http://www.w3.org/2000/svg" viewBox="0 0 24 24"><path d="M9 17a2 2 0 01-2-2V7h2v8h2V8h2v7h2V7h2v8a2 2 0 01-2 2H9z"/></svg>

<?xml version="1.0" encoding="UTF-8"?><!DOCTYPE svg PUBLIC "-//W3C//DTD SVG 1.1//EN" "http://www.w3.org/Graphics/SVG/1.1/DTD/svg11.dtd"><svg xmlns="http://www.w3.org/2000/svg" xmlns:xlink="http://www.w3.org/1999/xlink" version="1.1" id="mdi-alpha-w" width="24" height="24" viewBox="0 0 24 24"><path d="M9,17A2,2 0 0,1 7,15V7H9V15H11V8H13V15H15V7H17V15A2,2 0 0,1 15,17H9Z" /></svg>
